X:1
T:Title
%%score { ( 1 3 ) | ( 2 4 ) }
L:1/8
M:4/4
K:Eb
V:1 treble nm="Grand Piano"
V:3 treble 
V:2 bass 
V:4 bass 
V:1
 z4 z2[Q:1/4=100] E2 | E3 F G2 B2 | [Ec]2 [Ee]2 B2 G2 | E3 F G2 [B,EB]2 |[M:3/4] [DF]3 E F2 | %5
[M:1/4] [B,G]F |[M:4/4] E3 E G2 B2 | [Ec]2 [Ee]2 B2 GA | [B,GB]3 [B,EG] [B,DF]2 D-[DF] | %9
[M:3/4] E6 |[M:1/4] [GB]2 |[M:4/4] e3 [Bd] [Ac]3 [GB] | [Ac]2 [GB]2 [EG]3 [GB] | %13
 [Ge]3 G GF [G,E]2 |[M:7/8] [B,DF]3 [EG] [DB]3 |[M:1/4] E-[EF] |[M:4/4] G2 B2 [Ge]3 d | %17
 dc [Ee]2 B3 G | B3 G .[DB]2 [A,DF]2 |[M:3/4] [G,E]6 |] %20
V:2
 z4 z2 [E,G,]2 | [E,G,]3 [E,A,E] [E,E]2 [E,G,E]2 | [A,,A,]2 [C,A,]2 [E,G,E]2 [E,B,E]2 | %3
 [G,B,]3 [F,B,D] [E,B,E]2 G,,2 |[M:3/4] z2 z C D2 |[M:1/4] z A, | %6
[M:4/4] [E,G,]3 [E,A,] [E,B,E]2 [E,G,E]2 | [A,,A,]2 [C,A,]2 [E,G,E]2 EF | E,3 E, B,,2 z A, | %9
[M:3/4] [E,G,]6 |[M:1/4] [E,B,]2 |[M:4/4] [E,B,]3 [E,B,] [E,E]3 [E,E] | %12
 [E,E]2 [E,E]2 [E,B,]3 [E,B,] | z4 .B,2 z2 |[M:7/8] z z2 G, F,3 |[M:1/4] z A, | %16
[M:4/4] [E,B,E]2 [E,G,E]2 [E,B,]3 [G,B,E] | [A,E]2 [C,A,]2 [E,G,E]3 [E,B,E] | %18
 [E,G,E]3 [E,G,E] z A B,,2 |[M:3/4] E,6 |] %20
V:3
 x8 | x8 | x8 | x8 |[M:3/4] B,6 |[M:1/4] D2 |[M:4/4] x8 | x8 | z4 z2 .[B,G]2 |[M:3/4] x6 | %10
[M:1/4] x2 |[M:4/4] x8 | x8 | x8 |[M:7/8] x7 |[M:1/4] G, z |[M:4/4] x8 | x8 | x8 |[M:3/4] x6 |] %20
V:4
 x8 | x8 | x8 | x8 |[M:3/4] B,,6 |[M:1/4] B,,2 |[M:4/4] x8 | z4 z2 [E,B,]2 | z4 z2 B,,2 | %9
[M:3/4] x6 |[M:1/4] x2 |[M:4/4] x8 | x8 | [E,B,]3 [E,B,E] [E,E]-[E,A,E] E,2 | %14
[M:7/8] B,,-B,,-B,,- B,,- B,,2- B,,/ z/ |[M:1/4] E,2 |[M:4/4] x8 | x8 | z4 [B,,F,]2 z2 | %19
[M:3/4] x6 |] %20

